svg/education/black_board_2_line.svg

<?xml version="1.0" encoding="UTF-8"?>
<svg width="24px" height="24px" viewBox="0 0 24 24" version="1.1" xmlns="http://www.w3.org/2000/svg" xmlns:xlink="http://www.w3.org/1999/xlink">
    <title>black_board_2_line</title>
    <g id="Icon" stroke="none" stroke-width="1" fill="none" fill-rule="evenodd">
        <g id="Education" transform="translate(-96.000000, -96.000000)" fill-rule="nonzero">
            <g id="black_board_2_line" transform="translate(96.000000, 96.000000)">
                <path d="M24,0 L24,24 L0,24 L0,0 L24,0 Z M12.5935,23.2578 L12.5819,23.2595 L12.5109,23.295 L12.4919,23.2987 L12.4767,23.295 L12.4057,23.2595 C12.3958,23.2564 12.387,23.259 12.3821,23.2649 L12.378,23.2758 L12.3609,23.7031 L12.3659,23.7235 L12.3769,23.7357 L12.4805,23.8097 L12.4953,23.8136 L12.5071,23.8097 L12.6107,23.7357 L12.6233,23.7197 L12.6267,23.7031 L12.6096,23.2758 C12.6076,23.2657 12.601,23.2593 12.5935,23.2578 Z M12.8584,23.1453 L12.8445,23.1473 L12.6598,23.2397 L12.6499,23.2499 L12.6472,23.2611 L12.6651,23.6906 L12.6699,23.7034 L12.6784,23.7105 L12.8793,23.8032 C12.8914,23.8069 12.9022,23.803 12.9078,23.7952 L12.9118,23.7812 L12.8777,23.1665 C12.8753,23.1546 12.8674,23.147 12.8584,23.1453 Z M12.143,23.1473 C12.1332,23.1424 12.1222,23.1453 12.1156,23.1526 L12.1099,23.1665 L12.0758,23.7812 C12.0751,23.7927 12.0828,23.8019 12.0926,23.8046 L12.1083,23.8032 L12.3092,23.7105 L12.3186,23.7024 L12.3225,23.6906 L12.3404,23.2611 L12.3372,23.2485 L12.3278,23.2397 L12.143,23.1473 Z" id="MingCute"></path>
                <path d="M13.286992,3.88301704 L13.4142,3.99985 L16.4142,6.99985 L19,6.99985 C20.0543909,6.99985 20.9181678,7.81572733 20.9945144,8.85058759 L21,8.99985 L21,18.9998 C21,20.0541909 20.18415,20.9179678 19.1492661,20.9943144 L19,20.9998 L5,20.9998 C3.94563773,20.9998 3.08183483,20.18395 3.00548573,19.1490661 L3,18.9998 L3,8.99985 C3,7.94548773 3.81587733,7.08168483 4.85073759,7.00533573 L5,6.99985 L7.58579,6.99985 L10.5858,3.99985 C11.2845895,3.30101579 12.3719679,3.22745429 13.1525655,3.77916551 L13.286992,3.88301704 Z M19,8.99985 L5,8.99985 L5,18.9998 L19,18.9998 L19,8.99985 Z M10,14.9998 C10.5523,14.9998 11,15.4476 11,15.9998 C11,16.5521 10.5523,16.9998 10,16.9998 L8,16.9998 C7.44772,16.9998 7,16.5521 7,15.9998 C7,15.4476 7.44772,14.9998 8,14.9998 L10,14.9998 Z M14,10.9998 C14.5523,10.9998 15,11.4476 15,11.9998 C15,12.51265 14.613973,12.9353092 14.1166239,12.9930725 L14,12.9998 L8,12.9998 C7.44772,12.9998 7,12.5521 7,11.9998 C7,11.4870429 7.38604429,11.0643041 7.88337975,11.0065289 L8,10.9998 L14,10.9998 Z M12,5.41406 L10.4142,6.99985 L13.5858,6.99985 L12,5.41406 Z" id="形状" fill="#09244B"></path>
            </g>
        </g>
    </g>
</svg>

<svg xmlns="http://www.w3.org/2000/svg" width="24" height="24"><g fill="none" fill-rule="nonzero"><path d="M24 0v24H0V0h24ZM12.594 23.258l-.012.002-.071.035-.02.004-.014-.004-.071-.036c-.01-.003-.019 0-.024.006l-.004.01-.017.428.005.02.01.013.104.074.015.004.012-.004.104-.074.012-.016.004-.017-.017-.427c-.002-.01-.009-.017-.016-.018Zm.264-.113-.014.002-.184.093-.01.01-.003.011.018.43.005.012.008.008.201.092c.012.004.023 0 .029-.008l.004-.014-.034-.614c-.003-.012-.01-.02-.02-.022Zm-.715.002a.023.023 0 0 0-.027.006l-.006.014-.034.614c0 .012.007.02.017.024l.015-.002.201-.093.01-.008.003-.011.018-.43-.003-.012-.01-.01-.184-.092Z"/><path fill="#09244B" d="m13.287 3.883.127.117 3 3H19a2 2 0 0 1 1.995 1.85L21 9v10a2 2 0 0 1-1.85 1.994L19 21H5a2 2 0 0 1-1.995-1.85L3 19V9a2 2 0 0 1 1.85-1.995L5 7h2.586l3-3a2 2 0 0 1 2.567-.22l.134.103ZM19 9H5v10h14V9Zm-9 6a1 1 0 0 1 0 2H8a1 1 0 1 1 0-2h2Zm4-4a1 1 0 0 1 .117 1.993L14 13H8a1 1 0 0 1-.117-1.993L8 11h6Zm-2-5.586L10.414 7h3.172L12 5.414Z"/></g></svg>
